share/icons/Flat-Remix-Blue-Dark/mimetypes/scalable/gdnote.svg

<svg xmlns="http://www.w3.org/2000/svg" xmlns:xlink="http://www.w3.org/1999/xlink" width="36pt" height="36pt" version="1.1" viewBox="0 0 36 36"> <defs> <clipPath id="clip1"> <path d="M 20 2 L 31 2 L 31 13 L 20 13 Z M 20 2"/> </clipPath> <clipPath id="clip2"> <path d="M 20.515625 2.625 L 30.328125 12.4375 L 22.023438 12.4375 C 21.292969 12.4375 20.515625 11.660156 20.515625 10.929688 Z M 20.515625 2.625"/> </clipPath> <image id="image6" width="36" height="36" xlink:href="data:image/png;base64,iVBORw0KGgoAAAANSUhEUgAAACQAAAAkCAYAAADhAJiYAAAABmJLR0QA/wD/AP+gvaeTAAAAmklEQVRYhe3T0QqCQBBG4aOtYEoUvf9Lildltl00C4tkbBeTIP+BAUEYP1YW1Pcqh53B9kbgaVPcwQF0tAmGSrMZ6AKcDQXw+AUVHEAtcAUaewYYgYmC3+cBCkAPnDJQMcoDVNnebgEqQnmAclTz4d0I3P4JStc9AjXvk4qLWQV53LLeEOl05gw4A3dgcPiuUkoppZRSSqk99gLWvSJpuDnlsAAAAABJRU5ErkJggg=="/> <clipPath id="clip3"> <path d="M 12 12 L 24 12 L 24 27 L 12 27 Z M 12 12"/> </clipPath> <clipPath id="clip4"> <path d="M 31.617188 19.875 C 31.617188 27.320312 25.519531 33.347656 18.003906 33.347656 C 10.488281 33.347656 4.390625 27.320312 4.390625 19.875 C 4.390625 12.429688 10.488281 6.398438 18.003906 6.398438 C 25.519531 6.398438 31.617188 12.429688 31.617188 19.875 Z M 31.617188 19.875"/> </clipPath> </defs> <g> <path style="fill:rgb(100.000%,78.039%,18.823%)" d="M 7.347656 3.152344 C 6.675781 3.152344 6.042969 3.785156 6.042969 4.457031 L 6.042969 31.847656 C 6.042969 32.480469 6.714844 33.152344 7.347656 33.152344 L 28.21875 33.152344 C 28.851562 33.152344 29.523438 32.480469 29.523438 31.847656 L 29.523438 11.632812 L 21.042969 3.152344 Z M 7.347656 3.152344"/> <g clip-path="url(#clip1)"> <g clip-path="url(#clip2)"> <use xlink:href="#image6"/> </g> </g> <path style="fill:rgb(98.039%,90.980%,58.431%)" d="M 21.042969 3.152344 L 29.523438 11.632812 L 22.347656 11.632812 C 21.714844 11.632812 21.042969 10.960938 21.042969 10.328125 Z M 21.042969 3.152344"/> <g clip-path="url(#clip3)"> <g clip-path="url(#clip4)"> <path style="fill:rgb(100.000%,100.000%,100.000%)" d="M 18.007812 12.84375 C 16.292969 12.847656 14.613281 13.605469 13.582031 15.007812 C 11.972656 17.195312 12.558594 20.164062 14.851562 21.710938 L 14.851562 26.320312 L 15.636719 26.320312 L 15.636719 26.90625 L 20.371094 26.90625 L 20.371094 26.320312 L 21.148438 26.320312 L 21.148438 21.710938 C 21.640625 21.375 22.078125 20.972656 22.417969 20.503906 C 24.058594 18.261719 23.421875 15.207031 20.980469 13.6875 C 20.066406 13.121094 19.035156 12.84375 18.003906 12.84375 M 17.996094 13.734375 C 18.835938 13.734375 19.683594 13.960938 20.4375 14.425781 C 22.4375 15.671875 22.960938 18.15625 21.609375 20 C 21.296875 20.421875 20.902344 20.792969 20.441406 21.082031 L 20.363281 22.21875 L 15.625 22.21875 L 15.558594 21.082031 C 13.550781 19.835938 13.027344 17.351562 14.386719 15.511719 C 15.230469 14.359375 16.601562 13.734375 17.996094 13.742188 M 15.628906 22.808594 L 20.363281 22.808594 L 20.363281 23.976562 L 15.628906 23.976562 M 15.628906 24.5625 L 20.363281 24.5625 L 20.363281 25.566406 L 15.628906 25.566406 M 15.628906 24.5625"/> </g> </g> </g> </svg>

<svg width="36pt" height="36pt" version="1.1" viewBox="0 0 36 36" xmlns="http://www.w3.org/2000/svg"><defs><filter id="a" x="-.192" y="-.192" width="1.384" height="1.384" color-interpolation-filters="sRGB"><feGaussianBlur stdDeviation="0.67843748"/></filter><clipPath id="c"><path d="m12 12h12v15h-12z"/></clipPath><clipPath id="b"><path d="m31.617 19.875c0 7.4453-6.0977 13.473-13.613 13.473s-13.613-6.0273-13.613-13.473 6.0977-13.477 13.613-13.477 13.613 6.0312 13.613 13.477z"/></clipPath></defs><path d="m7.3477 3.9022c-0.67188 0-1.3047 0.63281-1.3047 1.3047v27.391c0 0.63281 0.67188 1.3047 1.3047 1.3047h20.871c0.63281 0 1.3047-0.67188 1.3047-1.3047v-20.215l-8.4805-8.4805z" opacity=".3"/><path d="m7.3477 3.1523c-0.67188 0-1.3047 0.63281-1.3047 1.3047v27.391c0 0.63281 0.67188 1.3047 1.3047 1.3047h20.871c0.63281 0 1.3047-0.67188 1.3047-1.3047v-20.215l-8.4805-8.4805z" fill="#ffc62f"/><path d="m20.668 3.5272 8.4805 8.4805h-7.1758c-0.63281 0-1.3047-0.67187-1.3047-1.3047z" filter="url(#a)" opacity=".2"/><path d="m21.043 3.1523 8.4805 8.4805h-7.1758c-0.63281 0-1.3047-0.67187-1.3047-1.3047z" fill="#f9e794"/><g clip-path="url(#c)"><g clip-path="url(#b)"><path d="m18.008 12.844c-1.7148 0.003906-3.3945 0.76172-4.4258 2.1641-1.6094 2.1875-1.0234 5.1562 1.2695 6.7031v4.6094h0.78516v0.58594h4.7344v-0.58594h0.77734v-4.6094c0.49219-0.33594 0.92969-0.73828 1.2695-1.207 1.6406-2.2422 1.0039-5.2969-1.4375-6.8164-0.91406-0.56641-1.9453-0.84375-2.9766-0.84375m-0.007812 0.89062c0.83984 0 1.6875 0.22656 2.4414 0.69141 2 1.2461 2.5234 3.7305 1.1719 5.5742-0.3125 0.42188-0.70703 0.79297-1.168 1.082l-0.078125 1.1367h-4.7383l-0.066406-1.1367c-2.0078-1.2461-2.5312-3.7305-1.1719-5.5703 0.84375-1.1523 2.2148-1.7773 3.6094-1.7695m-2.3672 9.0664h4.7344v1.168h-4.7344m0 0.58594h4.7344v1.0039h-4.7344" fill="#fff"/></g></g></svg>
